X:1
T:Canon in D
T:Arranged and Modified by Tony Li
%%score { ( 1 2 ) | ( 3 4 ) }
L:1/8
Q:1/4=71
M:4/4
K:D
V:1 treble nm="Piano" snm="Pno."
V:2 treble 
V:3 bass 
V:4 bass 
V:1
!pp!!pp!"^Adagio" [Ff]4 [Ee]4 | [Dd]4 [Cc]4 | [B,B]4 [A,A]4 | [B,B]4 [Cc]4 | %4
!p!!p! !arpeggio![dad'f']4 !arpeggio![cgc'e']4 | !arpeggio![Bfbd']4 !arpeggio![Aeac']4 | %6
 !arpeggio![Gdgb]4 !arpeggio![Fcfa]4 | !arpeggio![Gdgb]4 !arpeggio![Aeac']4 | [Adf]cdF [EAc]AGA | %9
 [FBd]dcB [EAc]fab | [Beg]feg [Adf]edc | [DGB]ABd [Ed]2 [Ec]2 | %12
 !arpeggio![Adf]cdF !arpeggio![EAc]AGA | !arpeggio![FBd]dcB !arpeggio![EAc]fab | %14
 !arpeggio![Beg]feg !arpeggio![Adf]edc | !arpeggio![DGB]ABd [Ed]2 [Ec]2 | %16
!mp! [fa][df]/[eg]/ [fa][df]/[eg]/ [ca]/[FA]/[GB]/[Ac]/ [Bd]/[ce]/[df]/[eg]/ | %17
 [df][Bd]/[ce]/ [df][DF]/[EG]/ [FA]/[GB]/[FA]/[EG]/ [FA]/[Bd]/[Ac]/[Bd]/ | %18
 [GB][Bd]/[Ac]/ [GB][FA]/[EG]/ [FA]/[EG]/[DF]/[EG]/ [FA]/[GB]/[Ac]/[Bd]/ | %19
 [EG][GB]/[FA]/ [GB][Ac]/[Bd]/ [Ac]/[GB]/[FA]/[GB]/ [Ac]/[Bd]/[ce]/[df]/ | %20
 [fa][df]/[eg]/ [fa][df]/[eg]/ [ca]/[FA]/[GB]/[Ac]/ [Bd]/[ce]/[df]/[eg]/ | %21
 [df][Bd]/[ce]/ [df][DF]/[EG]/ [FA]/[GB]/[FA]/[EG]/ [FA]/[Bd]/[Ac]/[Bd]/ | %22
 [GB][Bd]/[Ac]/ [GB][FA]/[EG]/ [FA]/[EG]/[DF]/[EG]/ [FA]/[GB]/[Ac]/[Bd]/ | %23
 [GB][Bd]/[Ac]/ [Bd][Ac]/[GB]/ [Ac]/[Bd]/[ce]/[Bd]/ [Ac]/[Bd]/[GB]/[Ac]/ | [Afa]2 fa [cea]bag | %25
 [Fdf]2 df [Acf]gfe | [DBd]2 Bd [FAd]2 Fd | [DBd]=cBc [^CA^c]4 | %28
 [Afa]2 [Fdf][Afa] [Afa][Bgb][Afa][Geg] | [Fdf]2 [DBd][Fdf] [Fdf][Geg][Fdf][Ece] | %30
 [DBd]2 [B,GB][DBd] [DBd]2 [DF][Bd] | [DBd][=CA=c][B,GB][CAc] [^CA^c]2 [Bd][ce] | %32
!pp! !///!F2 !///!F2 !///!E2 !///!E2 | !///!D2 !///!D2 !///!C2 !///!C2 | %34
 !///!B,2 !///!B,2 !///!A,2 !///!A,2 | !///!B,2 !///!B,2 !///!C2 !///!C2 | %36
!p! !///![Ff]2 !///![Ff]2 !///![Ee]2 !///![Ee]2 | !///![Dd]2 !///![Dd]2 !///![Cc]2 !///![Cc]2 | %38
 !///![B,B]2 !///![B,B]2 !///![A,A]2 !///![A,A]2 | !///![B,B]2 !///![B,B]2 !///![Cc]2 !///![Cc]2 | %40
 z/ [Ac]/[Bd]/[Ac]/[Bd]/[Ac]/[Bd]/[DF]/ z/ [FA]/[EG]/[FA]/[EG]/[FA]/[EG]/[FA]/ | %41
 z/ [Bd]/[ce]/[Bd]/[Ac]/[Bd]/[Ac]/[GB]/ z/ [df]/[df]/[fa]/[fa]/[gb]/[gb]/[ac']/ | %42
 z/ [ce]/[df]/[ce]/[df]/[ce]/[df]/[ce]/ z/ [ce]/[ce]/[Bd]/[Bd]/[Ac]/[Ac]/[GB]/ | %43
 z/ [FA]/[EG]/[GB]/[FA]/[Bd]/[Ac]/[ce]/ [Ed]2 [Ec]2 | %44
 z/ [Ac]/[Bd]/[ce]/[df]/[ce]/[Bd]/[Ac]/ z/ [FA]/[GB]/[Ac]/[Bd]/[Ac]/[GB]/[FA]/ | %45
 z/ [Bd]/[ce]/[df]/[eg]/[df]/[ce]/[Bd]/ z/ [df]/[eg]/[fa]/[gb]/[fa]/[eg]/[df]/ | %46
 z/ [ce]/[df]/[eg]/[fa]/[eg]/[df]/[ce]/ z/ [Bd]/[ce]/[df]/[eg]/[df]/[ce]/[Bd]/ | %47
 z/ [FA]/[EG]/[GB]/[FA]/[Bd]/[Ac]/[ce]/ [Ed]2 [Ec]2 | %48
!mp! [fa][df]/[eg]/ [fa][df]/[eg]/ [ca]/[FA]/[GB]/[Ac]/ [Bd]/[ce]/[df]/[eg]/ | %49
 [df][Bd]/[ce]/ [df][DF]/[EG]/ [FA]/[GB]/[FA]/[EG]/ [FA]/[Bd]/[Ac]/[Bd]/ | %50
 [GB][Bd]/[Ac]/ [GB][FA]/[EG]/ [FA]/[EG]/[DF]/[EG]/ [FA]/[GB]/[Ac]/[Bd]/ | %51
 [EG][GB]/[FA]/ [GB][Ac]/[Bd]/ [Ac]/[GB]/[FA]/[GB]/ [Ac]/[Bd]/[ce]/[df]/ | %52
 [fa][df]/[eg]/ [fa][df]/[eg]/ [ca]/[FA]/[GB]/[Ac]/ [Bd]/[ce]/[df]/[eg]/ | %53
 [df][Bd]/[ce]/ [df][DF]/[EG]/ [FA]/[GB]/[FA]/[EG]/ [FA]/[Bd]/[Ac]/[Bd]/ | %54
 [GB][Bd]/[Ac]/ [GB][FA]/[EG]/ [FA]/[EG]/[DF]/[EG]/ [FA]/[GB]/[Ac]/[Bd]/ | %55
 [GB][Bd]/[Ac]/ [Bd][Ac]/[GB]/ [Ac]/[Bd]/[ce]/[Bd]/ [Ac]/[Bd]/[GB]/[Ac]/ | %56
!8va(! a'/a/a'/a/ f'/a/a'/a/ a'/a/b'/a/ a'/a/g'/a/ | f'/f/f'/f/ d'/f/f'/f/ f'/f/g'/f/ f'/f/e'/f/ | %58
 d'/d/d'/d/ b/d/d'/d/ d'/d/d'/d/ f/d/d'/d/ | d'/d/=c'/d/ b/d/c'/d/ ^c'/c/c'/c/ c'/c/c'/c/!8va)! | %60
 !arpeggio![Afa]2 !arpeggio![Fdf]!arpeggio![Afa] !arpeggio![Afa]!arpeggio![Bgb]!arpeggio![Afa]!arpeggio![Geg] | %61
 !arpeggio![Fdf]2 !arpeggio![DBd]!arpeggio![Fdf] !arpeggio![Fdf]!arpeggio![Geg]!arpeggio![Fdf]!arpeggio![Ece] | %62
 !arpeggio![DBd]2 !arpeggio![B,GB]!arpeggio![DBd] !arpeggio![DBd]2 [DF][Bd] | %63
 !arpeggio![DBd]!arpeggio![=CA=c]!arpeggio![B,GB]!arpeggio![CAc] !arpeggio![^CA^c]2 [Bd][ce] | %64
!pp!!pp! [Ff]4 [Ee]4 | [Dd]4 [Cc]4 | [B,B]4 [A,A]4 | [B,B]4 [Cc]4 | %68
!p!!p! !arpeggio![dad'f']4 !arpeggio![cgc'e']4 | !arpeggio![Bfbd']4 !arpeggio![Aeac']4 | %70
 !arpeggio![Gdgb]4 !arpeggio![Fcfa]4 | !arpeggio![Gdgb]4 !arpeggio![Aeac']4 | !arpeggio![Adad']8 |] %73
V:2
 z D f'2 z A, e'2 | z B, d'2 z F, c'2 | z G, b2 z D, a2 | z G, b2 z A, c'2 | %4
 z2{Afe} f2 z2{Aed} e2 | z2{fdc} d2 z2{ecB} c2 | z2{DBA} B2 z2{DAG} A2 | z2{Bdf} b2 z2{ceg} c'2 | %8
 A2 z2 E2 z2 | F2 z2 E2 z2 | B2 z2 A2 z2 | D2 z2 x4 | A2 A2 E2 E2 | F2 F2 E2 c2 | B2 B2 A2 A2 | %15
 D2 D2 z/ D/G/B/ z/ C/E/A/ | x8 | x8 | x8 | x8 | x8 | x8 | x8 | x8 | x8 | x8 | x8 | x8 | x8 | x8 | %30
 x8 | x8 | x8 | x8 | x8 | x8 | x8 | x8 | x8 | x8 | [ad'f']4 [eac']4 | [dgb]4 [eac']4 | %42
 [Beg]4 [Adf]4 | [DGB]4 z/ D/G/B/ z/ C/E/A/ | [ad'f']4 [eac']4 | [dgb]4 [eac']4 | [Beg]4 [Adf]4 | %47
 [DGB]4 z/ D/G/B/ z/ C/E/A/ | x8 | x8 | x8 | x8 | x8 | x8 | x8 | x8 |!8va(! a'2 f'a' a'b'a'g' | %57
 f'2 d'f' f'g'f'e' | d'2 bd' d'2 fd' | d'=c'bc' ^c'2 x2!8va)! | z8 | x8 | x8 | x8 | %64
 z D f'2 z A, e'2 | z B, d'2 z F, c'2 | z G, b2 z D, a2 | z G, b2 z A, c'2 | %68
 z2{Afe} f2 z2{Aed} e2 | z2{fdc} d2 z2{ecB} c2 | z2{DBA} B2 z2{DAG} A2 | z2{Bdf} b2 z2{ceg} c'2 | %72
 x8 |] %73
V:3
 [D,,D,]A,DF [A,,,A,,]E,A,C | [B,,,B,,]F,B,D [F,,,F,,]C,F,A, | [G,,,G,,]D,G,B, [D,,,D,,]A,,D,F, | %3
 [G,,,G,,]D,G,B, [A,,,A,,]E,A,C | [D,,D,]A,DF [A,,,A,,]E,A,C | [B,,,B,,]F,B,D [F,,,F,,]C,F,A, | %6
 [G,,,G,,]D,G,B, [D,,,D,,]A,,D,F, | [G,,,G,,]D,G,B, [A,,,A,,]E,A,C | [D,,D,]A,DA, [A,,,A,,]E,A,E, | %9
 [B,,,B,,]F,B,F, [F,,,F,,]C,F,C, | [G,,,G,,]D,G,D, [D,,,D,,]A,,D,A,, | %11
 [G,,,G,,]D,G,D, [A,,,A,,]E,A,E, |!ped! !arpeggio![D,,D,]A,DA, !arpeggio![A,,,A,,]E,A,E,!ped-up! | %13
!ped! !arpeggio![B,,,B,,]F,B,F, !arpeggio![F,,,F,,]C,F,C,!ped-up! | %14
!ped! !arpeggio![G,,,G,,]D,G,D, !arpeggio![D,,,D,,]A,,D,A,,!ped-up! | %15
!ped! !arpeggio![G,,,G,,]D,G,D, !arpeggio![A,,,A,,]E,A,E,!ped-up! | %16
 [D,,D,]A,<DA, [A,,,A,,]E,<A,E, | [B,,,B,,]F,<B,F, [F,,,F,,]C,<F,C, | %18
 [G,,,G,,]D,<G,D, [D,,,D,,]A,,<D,A,, | [G,,,G,,]D,<G,D, [A,,,A,,]E,<A,E, | %20
 [D,,,D,,]/A,,/D,/F,/[A,,A,]/F,/D,/A,,/ [A,,,A,,]/E,/A,/C/[E,E]/C/A,/E,/ | %21
 [B,,,B,,]/F,/B,/D/[F,F]/D/B,/F,/ [F,,,F,,]/C,/F,/A,/[C,C]/A,/F,/C,/ | %22
 [G,,,G,,]/D,/G,/B,/[D,D]/B,/G,/D,/ [D,,,D,,]/A,,/D,/F,/[A,,A,]/F,/D,/A,,/ | %23
 [G,,,G,,]/D,/G,/B,/[D,D]/B,/G,/D,/ [A,,,A,,]/E,/A,/C/[E,E]/C/A,/E,/ | !>![D,,D,]4 !>![A,,,A,,]4 | %25
 !>![B,,,B,,]4 !>![F,,,F,,]4 | !>![G,,,G,,]4 !>![D,,,D,,]4 | !>![G,,,G,,]4 !>![A,,,A,,]4 | %28
 D,/A,/D/F/D/A,/D,/A,/ A,,/E,/A,/C/A,/E,/A,,/E,/ | %29
 B,,/F,/B,/D/B,/F,/B,,/F,/ F,,/C,/F,/A,/F,/C,/F,,/C,/ | %30
 G,,/D,/G,/B,/G,/D,/G,,/D,/ D,,/A,,/D,/F,/D,/A,,/D,,/A,,/ | %31
 G,,/D,/G,/B,/G,/D,/G,,/D,/ A,,/E,/A,/C/A,/E,/A,,/E,/ | [D,,D,]A,D z [A,,,A,,]E,A,C | %33
 [B,,,B,,]F,B, z [F,,,F,,]C,F,A, | [G,,,G,,]D,G, z [D,,,D,,]A,,D,F, | %35
 [G,,,G,,]D,G, z [A,,,A,,]E,A,C | [D,,A,,D,][A,D][A,D] z [A,,,E,,A,,][A,C][A,C] z | %37
 [B,,,F,,B,,][F,B,]B, z [F,,,D,,F,,][F,A,][F,A,] z | %38
 [G,,,D,,G,,][D,G,][D,G,] z [D,,,A,,,D,,][D,F,][D,F,] z | %39
 [G,,,D,,G,,][D,G,][D,G,] z [A,,,E,,A,,][A,C][A,C] z | [D,,D,]A,DA, [A,,,A,,]E,A,E, | %41
 [B,,,B,,]F,B,F, [F,,,F,,]C,F,C, | [G,,,G,,]D,G,D, [D,,,D,,]A,,D,A,, | %43
 [G,,,G,,]D,G,D, [A,,,A,,]E,A,E, | [D,,D,]A,DA, [A,,,A,,]E,A,E, | [B,,,B,,]F,B,F, [F,,,F,,]C,F,C, | %46
 [G,,,G,,]D,G,D, [D,,,D,,]A,,D,A,, | [G,,,G,,]D,G,D, [A,,,A,,]E,A,E, | %48
 [D,,D,]A,<DA, [A,,,A,,]E,<A,E, | [B,,,B,,]F,<B,F, [F,,,F,,]C,<F,C, | %50
 [G,,,G,,]D,<G,D, [D,,,D,,]A,,<D,A,, | [G,,,G,,]D,<G,D, [A,,,A,,]E,<A,E, | %52
 [D,,,D,,]/A,,/D,/F,/[A,,A,]/F,/D,/A,,/ [A,,,A,,]/E,/A,/C/[E,E]/C/A,/E,/ | %53
 [B,,,B,,]/F,/B,/D/[F,F]/D/B,/F,/ [F,,,F,,]/C,/F,/A,/[C,C]/A,/F,/C,/ | %54
 [G,,,G,,]/D,/G,/B,/[D,D]/B,/G,/D,/ [D,,,D,,]/A,,/D,/F,/[A,,A,]/F,/D,/A,,/ | %55
 [G,,,G,,]/D,/G,/B,/[D,D]/B,/G,/D,/ [A,,,A,,]/E,/A,/C/[E,E]/C/A,/E,/ | !>![D,,D,]4 !>![A,,,A,,]4 | %57
 !>![B,,,B,,]4 !>![F,,,F,,]4 | !>![G,,,G,,]4 !>![D,,,D,,]4 | !>![G,,,G,,]4 !>![A,,,A,,]4 | %60
 D,/A,/D/F/D/A,/D,/A,/ A,,/E,/A,/C/A,/E,/A,,/E,/ | %61
 B,,/F,/B,/D/B,/F,/B,,/F,/ F,,/C,/F,/A,/F,/C,/F,,/C,/ | %62
 G,,/D,/G,/B,/G,/D,/G,,/D,/ D,,/A,,/D,/F,/D,/A,,/D,,/A,,/ | %63
 G,,/D,/G,/B,/G,/D,/G,,/D,/ A,,/E,/A,/C/A,/E,/A,,/E,/ | [D,,D,]A,DF [A,,,A,,]E,A,C | %65
 [B,,,B,,]F,B,D [F,,,F,,]C,F,A, | [G,,,G,,]D,G,B, [D,,,D,,]A,,D,F, | %67
 [G,,,G,,]D,G,B, [A,,,A,,]E,A,C | [D,,D,]A,DF [A,,,A,,]E,A,C | [B,,,B,,]F,B,D [F,,,F,,]C,F,A, | %70
 [G,,,G,,]D,G,B, [D,,,D,,]A,,D,F, | [G,,,G,,]D,G,B, [A,,,A,,]E,A,C | !arpeggio![A,,D,A,D]8 |] %73
V:4
 D,,2 F,2 A,,,2 C,2 | B,,,2 D,2 F,,,2 A,,2 | G,,,2 B,,2 D,,,2 F,,2 | G,,,2 B,,2 A,,,2 C,2 | %4
 D,,2 F,2 A,,,2 C,2 | B,,,2 D,2 F,,,2 A,,2 | G,,,2 B,,2 D,,,2 F,,2 | G,,,2 B,,2 A,,,2 C,2 | %8
 D,,2 F,2 A,,,2 C,2 | B,,,2 D,2 F,,,2 A,,2 | G,,,2 B,,2 D,,,2 F,,2 | G,,,2 B,,2 A,,,2 C,2 | %12
 D,,2 F,2 A,,,2 C,2 | B,,,2 D,2 F,,,2 A,,2 | G,,,2 B,,2 D,,,2 F,,2 | G,,,2 B,,2 A,,,2 C,2 | %16
 D,,2 F,2 A,,,2 C,2 | B,,,2 D,2 F,,,2 A,,2 | G,,,2 B,,2 D,,,2 F,,2 | G,,,2 B,,2 A,,,2 C,2 | %20
 D,,,2 A,,2 A,,,2 E,2 | B,,,2 F,2 F,,,2 C,2 | G,,,2 D,2 D,,,2 A,,2 | G,,,2 D,2 A,,,2 E,2 | %24
 x A,DA, x E,A,E, | x F,B,F, x C,F,C, | x D,G,D, x A,,D,A,, | x D,G,D, x E,A,E, | %28
 !>![D,,D,]2 [D,D]2 !>![A,,,A,,]2 [A,,A,]2 | !>![B,,,B,,]2 [B,,B,]2 !>![F,,,F,,]2 [F,,F,]2 | %30
 !>![G,,,G,,]2 [G,,G,]2 !>![D,,,D,,]2 [D,,D,]2 | !>![G,,,G,,]2 [G,,G,]2 !>![A,,,A,,]2 [A,,A,]2 | %32
 D,,2 F,2 A,,,2 C,2 | B,,,2 D,2 F,,,2 A,,2 | G,,,2 B,,2 D,,,2 F,,2 | G,,,2 B,,2 A,,,2 C,2 | %36
 D,2 x2 A,,2 x2 | B,,2 F,2 F,,2 x2 | G,,2 x2 D,,2 x2 | G,,2 x2 A,,2 x2 | D,,2 F,2 A,,,2 C,2 | %41
 B,,,2 D,2 F,,,2 A,,2 | G,,,2 B,,2 D,,,2 F,,2 | G,,,2 B,,2 A,,,2 C,2 | D,,2 F,2 A,,,2 C,2 | %45
 B,,,2 D,2 F,,,2 A,,2 | G,,,2 B,,2 D,,,2 F,,2 | G,,,2 B,,2 A,,,2 C,2 | D,,2 F,2 A,,,2 C,2 | %49
 B,,,2 D,2 F,,,2 A,,2 | G,,,2 B,,2 D,,,2 F,,2 | G,,,2 B,,2 A,,,2 C,2 | D,,,2 A,,2 A,,,2 E,2 | %53
 B,,,2 F,2 F,,,2 C,2 | G,,,2 D,2 D,,,2 A,,2 | G,,,2 D,2 A,,,2 E,2 | x A,DA, x E,A,E, | %57
 x F,B,F, x C,F,C, | x D,G,D, x A,,D,A,, | x D,G,D, x E,A,E, | %60
 !>![D,,D,]2 [D,D]2 !>![A,,,A,,]2 [A,,A,]2 | !>![B,,,B,,]2 [B,,B,]2 !>![F,,,F,,]2 [F,,F,]2 | %62
 !>![G,,,G,,]2 [G,,G,]2 !>![D,,,D,,]2 [D,,D,]2 | !>![G,,,G,,]2 [G,,G,]2 !>![A,,,A,,]2 [A,,A,]2 | %64
 D,,2 F,2 A,,,2 C,2 | B,,,2 D,2 F,,,2 A,,2 | G,,,2 B,,2 D,,,2 F,,2 | G,,,2 B,,2 A,,,2 C,2 | %68
 D,,2 F,2 A,,,2 C,2 | B,,,2 D,2 F,,,2 A,,2 | G,,,2 B,,2 D,,,2 F,,2 | G,,,2 B,,2 A,,,2 C,2 | x8 |] %73

